assets/svgs/sega32x.svg

<?xml version="1.0" encoding="UTF-8" standalone="no"?>
<svg
   xmlns:dc="http://purl.org/dc/elements/1.1/"
   xmlns:cc="http://creativecommons.org/ns#"
   xmlns:rdf="http://www.w3.org/1999/02/22-rdf-syntax-ns#"
   xmlns:svg="http://www.w3.org/2000/svg"
   xmlns="http://www.w3.org/2000/svg"
   xmlns:sodipodi="http://sodipodi.sourceforge.net/DTD/sodipodi-0.dtd"
   xmlns:inkscape="http://www.inkscape.org/namespaces/inkscape"
   version="1.1"
   id="svg13"
   sodipodi:docname="sega32x.svg"
   width="264"
   height="101.00024"
   inkscape:version="0.92.5 (2060ec1f9f, 2020-04-08)">
  <metadata
     id="metadata19">
    <rdf:RDF>
      <cc:Work
         rdf:about="">
        <dc:format>image/svg+xml</dc:format>
        <dc:type
           rdf:resource="http://purl.org/dc/dcmitype/StillImage" />
      </cc:Work>
    </rdf:RDF>
  </metadata>
  <defs
     id="defs17" />
  <sodipodi:namedview
     pagecolor="#ffffff"
     bordercolor="#666666"
     borderopacity="1"
     objecttolerance="10"
     gridtolerance="10"
     guidetolerance="10"
     inkscape:pageopacity="0"
     inkscape:pageshadow="2"
     inkscape:window-width="640"
     inkscape:window-height="480"
     id="namedview15"
     showgrid="false"
     inkscape:zoom="2.36"
     inkscape:cx="50.000386"
     inkscape:cy="51.000233"
     inkscape:window-x="72"
     inkscape:window-y="27"
     inkscape:window-maximized="0"
     inkscape:current-layer="svg13" />
  <path
     d="m 34.926386,100.122 c -2.85,-0.174 -5.706,-0.542 -8.522,-1.039 -11.455,-2.025 -16.7830003,-4.734 -19.9800003,-5.991 -1.528,-0.602 -3.021,-1.17 -4.682,-0.56 -0.188,0.069 -0.412,0.065 -0.619,0.069 -1.05399998,0.011 -1.37999998,-0.398 -0.91999998,-1.343 0.545,-1.124 1.18699998,-2.206 1.83199998,-3.278 1.749,-2.905 3.521,-5.798 5.286,-8.695 0.081,-0.136 0.174,-0.261 0.253,-0.398 0.361,-0.604 0.755,-1.162 1.579,-1.045 0.775,0.107 0.9440003,0.748 1.1050003,1.353 0.355,1.323 1.16,2.308 2.218,3.127 2.506,1.943 5.335,3.25 8.304,4.286 3.849,1.346 7.811,2.189 11.837,2.821 4.765,0.75 9.555,0.846 14.34,0.568 4.056,-0.236 8.05,-0.97 11.875,-2.468 2.327,-0.911 4.09,-2.517 5.506,-4.484 1.873,-2.607 1.107,-6.19 -1.45,-8.227 -3.47,-2.769 -7.507,-3.864 -11.783,-4.599 -3.845,-0.659 -7.683,-0.588 -11.532,-0.538 -1.808,0.023 -6.127,0.194 -7.782,1.732 -0.608,0.54 -1.094,0.58 -1.383,0.319 -0.291,-0.264 -0.303,-0.681 -0.306,-1.043 -0.032,-3.765 -0.035,-7.53 -0.011,-11.291 0.009,-1.232 0.583,-1.604 1.535,-0.935 1.204,0.843 2.541,1.213 3.937,1.394 2.317,0.298 9.882,0.034 11.428,-0.167 4.132,-0.542 3.77,-0.477 6.182,-1.124 2.581,-0.692 5.044,-2.508 6.33,-4.008 0.019,-0.025 0.041,-0.049 0.061,-0.073 1.792,-2.162 1.19,-4.652 -0.476,-6.433 -1.602,-1.713 -3.613,-2.806 -5.853,-3.468 -3.673,-1.084 -7.435,-1.679 -11.249,-1.499 -6.911,0.325 -13.684,1.384 -19.931,4.601 -1.43,0.74 -2.772,1.665 -4.092,2.595 -1.127,0.792 -1.695,1.952 -1.727,3.35 -0.016,0.727 0.099,1.556 -0.763,1.873 -0.869,0.32 -1.317,-0.436 -1.815,-0.94 -3.18,-3.237 -6.3480003,-6.489 -9.5190003,-9.736 -0.184,-0.187 -0.387,-0.364 -0.521,-0.585 -0.384,-0.621 -0.148,-1.136 0.587,-1.222 0.821,-0.094 1.702,0.036 2.465,-0.213 1.128,-0.369 2.183,-0.97 3.256,-1.497 2.8540003,-1.401 5.6330003,-2.98 8.5640003,-4.189 4.641,-1.913 9.528,-2.941 14.519,-3.561 4.775,-0.596 13.203,-0.841 19.301,0.061 4.074,0.618 8.114,1.437 11.897,3.126 3.337,1.49 6.595,3.154 9.086,5.964 1.8,2.03 3.01,4.301 3.415,7.055 0.388,2.639 -0.044,5.052 -1.172,7.419 -0.774,1.631 -1.935,2.685 -3.531,3.645 -3.129,1.881 -4.983,2.349 -5.379,2.591 -0.631,0.386 -0.658,0.897 -0.016,1.265 0.578,0.331 1.242,0.527 1.887,0.728 3.767,1.178 7.003,3.248 9.698,6.089 1.973,2.071 3.139,4.556 3.531,7.491 0.402,3.004 -0.302,5.662 -1.601,8.275 -1.007,2.033 -2.681,3.462 -4.44,4.76 -3.562,2.627 -7.524,4.402 -11.776,5.663 -3.162,0.937 -6.368,1.572 -9.615,2.003 -11.099,1.215 -16.769,0.584 -19.368,0.426 z m 129.404004,0.511 c -1.249,-1.318 -4.608,-1.437 -5.13,-1.437 -23.523,0 -47.047,-0.002 -70.571004,0 -2.393,0 -2.823,0.293 -2.528,-2.742 0.479,-4.968 2.301,-9.585 5.902,-13.152 0.69,-0.702 0.921,-0.939 2.497,-2.371 6.678004,-6.063 19.985004,-10.923 19.985004,-10.923 0,0 11.135,-4.12 17.388,-6.586 2.808,-1.106 5.551,-2.383 8.053,-4.118 9.069,-7.161 4.36,-14.27 -7.599,-15.927 -8.374,-1.199 -16.005,0.848 -23.059,5.355 -0.922,0.589 -1.699,1.177 -2.588,1.816 -1.576,1.336 -2.929,2.893 -3.224,4.616 -0.158,0.928 -0.006,1.569 0.012,1.72 0.061,0.483 0.207,1.248 -0.149,1.596 -0.43,0.421 -1.322,-10e-4 -1.718,-0.376 -3.636004,-3.442 -7.276004,-6.876 -10.915004,-10.311 -0.228,-0.216 -0.647,-0.677 -0.647,-0.677 0,0 -0.399,-0.461 -0.412,-0.779 -0.016,-0.355 0.332,-0.689 0.75,-0.82 1.983,-0.367 2.898,-0.483 4.087,-1.357 3.204,-2.342 6.548004,-4.439 10.124004,-6.184 4.776,-2.335 9.801,-3.723 15.063,-4.434 4.046,-0.544 15.93,-2.399 29.812,3.783 3.66,1.609 6.8,3.887 9.168,7.101 1.402,1.901 6.68,12.331 -4.078,20.658 -3.847,3.091 -8.437,5.002 -13.077,6.625 -3.971,1.39 -6.884,2.431 -13.381,4.314 -4.934,1.467 -8.475,2.618 -14.12,5.303 -4.49,2.132 -7.439,4.727 -7.439,4.727 0,0 -1.47,1.135 -1.184,2.024 0.244,0.772 1.473,0.695 2.195,0.696 17.369,0.011 34.738,0.007 52.108,0.008 1.798,0 3.54,-0.126 4.911,-1.539 0.202,-0.207 0.728,-0.317 0.968,-0.198 0.228,0.112 0.387,0.588 0.39,0.902 0.027,4.077 0.028,8.241 0.005,12.317 -0.004,0.396 -0.134,0.538 -0.329,0.653 -0.297,0.172 -0.928,0.082 -1.27,-0.283 z m 23.498,-67.054 c 3.701,0 7.406,0 11.109,0.003 0.367,0 0.735,-0.028 1.095,0.014 0.828,0.099 0.954,0.449 0.435,1.123 -0.926,1.209 -0.918,1.34 0.136,2.457 0.037,0.037 0.075,0.073 0.11,0.109 5.169,5.238 10.338,10.476 15.506,15.713 0.258,0.261 0.5,0.545 0.796,0.754 0.518,0.373 1.074,0.38 1.584,-0.029 0.285,-0.228 0.535,-0.498 0.792,-0.76 5.105,-5.156 10.208,-10.311 15.312,-15.47 0.183,-0.187 0.375,-0.366 0.539,-0.569 0.681,-0.847 0.664,-1.145 0.029,-2.054 -0.572,-0.772 -0.572,-1.247 0.594,-1.275 0.256,-0.007 0.519,-0.013 0.78,-0.013 7.513,0 15.026,-0.003 22.535,0.002 0.467,0 0.945,-0.006 1.397,0.093 0.192,0.043 0.424,0.331 0.457,0.538 0.032,0.202 -0.11,0.557 -0.278,0.641 -0.507,0.256 -1.05,0.475 -1.605,0.595 -2.103,0.462 -3.816,1.502 -5.336,3.053 -6.539,6.674 -13.145,13.283 -19.716,19.928 -1.647,1.668 -3.269,3.37 -4.884,5.073 -1.023,1.075 -1.025,1.586 0.011,2.645 1.82,1.862 3.69,3.67 5.501,5.54 1.342,1.382 2.59,2.858 3.942,4.23 3.595,3.642 7.234,7.239 10.834,10.875 2.423,2.447 4.824,4.916 7.207,7.402 1.37,1.436 2.968,2.434 4.895,2.93 0.701,0.176 1.389,0.445 2.05,0.74 0.181,0.082 0.369,0.421 0.342,0.613 -0.029,0.197 -0.286,0.449 -0.494,0.515 -0.337,0.108 -0.717,0.109 -1.078,0.109 -7.669,0.006 -15.336,0.004 -23.005,0 -0.312,0 -0.635,0.007 -0.929,-0.075 -0.489,-0.142 -0.674,-0.435 -0.372,-0.942 0.253,-0.426 0.654,-0.911 0.61,-1.33 -0.051,-0.443 -0.506,-0.877 -0.86,-1.241 -5.95,-6.08 -11.909,-12.15 -17.866,-18.223 -0.22,-0.223 -0.441,-0.447 -0.666,-0.663 -1.315,-1.276 -1.798,-1.292 -3.115,0.023 -3.809,3.795 -7.622,7.59 -11.397,11.421 -2.451,2.489 -4.84,5.04 -7.253,7.57 -0.908,0.952 -0.907,1.012 -0.218,2.277 0.394,0.72 0.246,1.037 -0.577,1.157 -0.356,0.052 -0.727,0.03 -1.092,0.03 -7.407,0.002 -14.815,0.011 -22.223,-0.011 -0.663,-0.003 -1.779,0.177 -1.835,-0.635 -0.118,-0.848 0.905,-0.89 1.505,-1.032 2.698,-0.632 4.759,-2.172 6.666,-4.132 6.08,-6.249 12.263,-12.396 18.38,-18.604 1.902,-1.93 3.717,-3.939 5.597,-5.889 0.722,-0.753 1.525,-1.422 2.266,-2.156 1.546,-1.539 1.551,-1.948 0.063,-3.453 -4.509,-4.57 -9.03,-9.128 -13.536,-13.703 -3.664,-3.713 -7.343,-7.416 -10.958,-11.178 -1.394,-1.446 -3.029,-2.35 -4.954,-2.799 -0.354,-0.083 -0.703,-0.194 -1.052,-0.301 -0.495,-0.153 -1.108,-0.271 -1.039,-0.948 0.068,-0.688 0.672,-0.688 1.21,-0.685 0.312,0 0.626,-0.003 0.939,-0.003 3.704,0 7.41,0 11.114,0 z"
     id="path23"
     style="fill:#ffffff;fill-opacity:1"
     inkscape:connector-curvature="0" />
  <g
     transform="matrix(1.25917,0,0,1.272552,-23.625423,0)"
     id="g11">
    <path
       d="m 109.385,12.379 c 0,0.988 0.805,1.771 1.771,1.761 h 7.233 v -2.203 h -6.793 V 11.32 h 5.353 V 9.128 h -7.553 z"
       id="path11"
       style="fill:#ffffff;fill-rule:evenodd"
       inkscape:connector-curvature="0" />
    <path
       d="m 109.396,5.118 c 0,-0.911 0.784,-1.756 1.76,-1.752 h 7.233 v 2.192 h -6.793 v 0.617 h 5.353 v 2.222 h -7.564 z"
       id="path13"
       style="fill:#ffffff;fill-rule:evenodd"
       inkscape:connector-curvature="0" />
    <path
       d="m 110.898,0.411 c -2.455,0 -4.446,1.991 -4.446,4.445 v 7.781 c 0,2.455 1.991,4.445 4.446,4.445 h 7.493 v -2.191 h -7.307 c -1.289,0 -2.432,-1.222 -2.432,-2.51 V 5.11 c 0,-1.289 1.143,-2.48 2.432,-2.48 h 7.307 V 0.408 h -7.493 z"
       id="path29"
       style="fill:#ffffff;fill-rule:evenodd"
       inkscape:connector-curvature="0" />
    <path
       d="M 125.084,11.997 V 5.558 h 7.145 V 3.366 h -7.546 c -0.976,-0.004 -1.76,0.841 -1.76,1.752 l -0.009,7.261 c 0,0.988 0.803,1.771 1.769,1.761 h 4.603 l -0.012,-5.051 h -3.463 v 2.172 h 1.28 v 0.735 h -2.007 z"
       id="path31"
       style="fill:#ffffff;fill-rule:evenodd"
       inkscape:connector-curvature="0" />
    <path
       d="m 104.333,0.39 h -7.178 c -3.024,0 -5.477,2.452 -5.477,5.476 0,3.025 2.453,5.418 5.477,5.392 h 2.187 v 0.739 h -7.616 v 2.144 h 7.368 c 1.385,0 2.509,-1.124 2.509,-2.507 0,-1.385 -1.124,-2.489 -2.509,-2.489 L 97.185,9.137 c -1.797,0 -3.254,-1.457 -3.254,-3.253 0,-1.797 1.456,-3.254 3.254,-3.254 h 7.153 z"
       id="path33"
       style="fill:#ffffff;fill-rule:evenodd"
       inkscape:connector-curvature="0" />
    <path
       d="m 104.333,5.499 h -7.461 v 0.735 l 2.238,0.004 c 3.026,0 5.477,2.393 5.477,5.417 0,3.025 -2.451,5.424 -5.477,5.424 l -7.384,-0.015 v -2.179 h 7.368 c 1.797,0 3.254,-1.456 3.254,-3.253 0,-1.796 -1.457,-3.234 -3.254,-3.234 L 97.185,8.391 c -1.385,0 -2.509,-1.124 -2.509,-2.509 0,-1.385 1.124,-2.508 2.509,-2.508 h 7.153 z"
       id="path35"
       style="fill:#ffffff;fill-rule:evenodd"
       inkscape:connector-curvature="0" />
    <path
       d="m 140.576,2.991 c -0.089,-0.209 -0.12,-0.259 -0.36,-0.259 -0.241,0 -0.299,0.125 -0.391,0.334 l -4.55,14.016 2.394,0.003 2.574,-7.77 0.847,2.624 h -1.699 v 2.211 h 4.835 z"
       id="path37"
       style="fill:#ffffff;fill-rule:evenodd"
       inkscape:connector-curvature="0" />
    <path
       d="m 124.425,17.084 c -2.455,0 -4.447,-1.991 -4.447,-4.445 V 4.858 c 0,-2.455 1.992,-4.445 4.447,-4.445 h 7.804 v 2.222 h -7.616 c -1.291,0 -2.434,1.191 -2.434,2.48 v 7.27 c 0,1.289 1.142,2.51 2.434,2.51 h 5.395 V 8.359 h -4.195 V 6.177 h 6.425 V 16.572 L 136.815,2.409 C 137.307,1.006 138.643,0 140.216,0 c 1.604,0 2.966,1.05 3.429,2.502 l 4.753,14.583 h -9.007 v -2.191 h 5.851 L 141.275,2.731 c -0.232,-0.669 -0.646,-0.748 -1.059,-0.748 -0.432,0 -0.831,0.177 -1.056,0.788 l -4.657,14.314 h -10.078 z"
       id="path39"
       style="fill:#ffffff;fill-rule:evenodd"
       inkscape:connector-curvature="0" />
  </g>
</svg>

<?xml version="1.0" encoding="utf-8"?>
<svg version="1.1" viewBox="0 0 264 101" xmlns="http://www.w3.org/2000/svg">
  <path d="M 34.926 100.122 C 32.076 99.948 29.22 99.58 26.404 99.083 C 14.949 97.058 9.621 94.349 6.424 93.092 C 4.896 92.49 3.403 91.922 1.742 92.532 C 1.554 92.601 1.33 92.597 1.123 92.601 C 0.069 92.612 -0.257 92.203 0.203 91.258 C 0.748 90.134 1.39 89.052 2.035 87.98 C 3.784 85.075 5.556 82.182 7.321 79.285 C 7.402 79.149 7.495 79.024 7.574 78.887 C 7.935 78.283 8.329 77.725 9.153 77.842 C 9.928 77.949 10.097 78.59 10.258 79.195 C 10.613 80.518 11.418 81.503 12.476 82.322 C 14.982 84.265 17.811 85.572 20.78 86.608 C 24.629 87.954 28.591 88.797 32.617 89.429 C 37.382 90.179 42.172 90.275 46.957 89.997 C 51.013 89.761 55.007 89.027 58.832 87.529 C 61.159 86.618 62.922 85.012 64.338 83.045 C 66.211 80.438 65.445 76.855 62.888 74.818 C 59.418 72.049 55.381 70.954 51.105 70.219 C 47.26 69.56 43.422 69.631 39.573 69.681 C 37.765 69.704 33.446 69.875 31.791 71.413 C 31.183 71.953 30.697 71.993 30.408 71.732 C 30.117 71.468 30.105 71.051 30.102 70.689 C 30.07 66.924 30.067 63.159 30.091 59.398 C 30.1 58.166 30.674 57.794 31.626 58.463 C 32.83 59.306 34.167 59.676 35.563 59.857 C 37.88 60.155 45.445 59.891 46.991 59.69 C 51.123 59.148 50.761 59.213 53.173 58.566 C 55.754 57.874 58.217 56.058 59.503 54.558 C 59.522 54.533 59.544 54.509 59.564 54.485 C 61.356 52.323 60.754 49.833 59.088 48.052 C 57.486 46.339 55.475 45.246 53.235 44.584 C 49.562 43.5 45.8 42.905 41.986 43.085 C 35.075 43.41 28.302 44.469 22.055 47.686 C 20.625 48.426 19.283 49.351 17.963 50.281 C 16.836 51.073 16.268 52.233 16.236 53.631 C 16.22 54.358 16.335 55.187 15.473 55.504 C 14.604 55.824 14.156 55.068 13.658 54.564 C 10.478 51.327 7.31 48.075 4.139 44.828 C 3.955 44.641 3.752 44.464 3.618 44.243 C 3.234 43.622 3.47 43.107 4.205 43.021 C 5.026 42.927 5.907 43.057 6.67 42.808 C 7.798 42.439 8.853 41.838 9.926 41.311 C 12.78 39.91 15.559 38.331 18.49 37.122 C 23.131 35.209 28.018 34.181 33.009 33.561 C 37.784 32.965 46.212 32.72 52.31 33.622 C 56.384 34.24 60.424 35.059 64.207 36.748 C 67.544 38.238 70.802 39.902 73.293 42.712 C 75.093 44.742 76.303 47.013 76.708 49.767 C 77.096 52.406 76.664 54.819 75.536 57.186 C 74.762 58.817 73.601 59.871 72.005 60.831 C 68.876 62.712 67.022 63.18 66.626 63.422 C 65.995 63.808 65.968 64.319 66.61 64.687 C 67.188 65.018 67.852 65.214 68.497 65.415 C 72.264 66.593 75.5 68.663 78.195 71.504 C 80.168 73.575 81.334 76.06 81.726 78.995 C 82.128 81.999 81.424 84.657 80.125 87.27 C 79.118 89.303 77.444 90.732 75.685 92.03 C 72.123 94.657 68.161 96.432 63.909 97.693 C 60.747 98.63 57.541 99.265 54.294 99.696 C 43.195 100.911 37.525 100.28 34.926 100.122 Z M 164.33 100.633 C 163.081 99.315 159.722 99.196 159.2 99.196 C 135.677 99.196 112.153 99.194 88.629 99.196 C 86.236 99.196 85.806 99.489 86.101 96.454 C 86.58 91.486 88.402 86.869 92.003 83.302 C 92.693 82.6 92.924 82.363 94.5 80.931 C 101.178 74.868 114.485 70.008 114.485 70.008 C 114.485 70.008 125.62 65.888 131.873 63.422 C 134.681 62.316 137.424 61.039 139.926 59.304 C 148.995 52.143 144.286 45.034 132.327 43.377 C 123.953 42.178 116.322 44.225 109.268 48.732 C 108.346 49.321 107.569 49.909 106.68 50.548 C 105.104 51.884 103.751 53.441 103.456 55.164 C 103.298 56.092 103.45 56.733 103.468 56.884 C 103.529 57.367 103.675 58.132 103.319 58.48 C 102.889 58.901 101.997 58.479 101.601 58.104 C 97.965 54.662 94.325 51.228 90.686 47.793 C 90.458 47.577 90.039 47.116 90.039 47.116 C 90.039 47.116 89.64 46.655 89.627 46.337 C 89.611 45.982 89.959 45.648 90.377 45.517 C 92.36 45.15 93.275 45.034 94.464 44.16 C 97.668 41.818 101.012 39.721 104.588 37.976 C 109.364 35.641 114.389 34.253 119.651 33.542 C 123.697 32.998 135.581 31.143 149.463 37.325 C 153.123 38.934 156.263 41.212 158.631 44.426 C 160.033 46.327 165.311 56.757 154.553 65.084 C 150.706 68.175 146.116 70.086 141.476 71.709 C 137.505 73.099 134.592 74.14 128.095 76.023 C 123.161 77.49 119.62 78.641 113.975 81.326 C 109.485 83.458 106.536 86.053 106.536 86.053 C 106.536 86.053 105.066 87.188 105.352 88.077 C 105.596 88.849 106.825 88.772 107.547 88.773 C 124.916 88.784 142.285 88.78 159.655 88.781 C 161.453 88.781 163.195 88.655 164.566 87.242 C 164.768 87.035 165.294 86.925 165.534 87.044 C 165.762 87.156 165.921 87.632 165.924 87.946 C 165.951 92.023 165.952 96.187 165.929 100.263 C 165.925 100.659 165.795 100.801 165.6 100.916 C 165.303 101.088 164.672 100.998 164.33 100.633 Z M 187.828 33.579 C 191.529 33.579 195.234 33.579 198.937 33.582 C 199.304 33.582 199.672 33.554 200.032 33.596 C 200.86 33.695 200.986 34.045 200.467 34.719 C 199.541 35.928 199.549 36.059 200.603 37.176 C 200.64 37.213 200.678 37.249 200.713 37.285 C 205.882 42.523 211.051 47.761 216.219 52.998 C 216.477 53.259 216.719 53.543 217.015 53.752 C 217.533 54.125 218.089 54.132 218.599 53.723 C 218.884 53.495 219.134 53.225 219.391 52.963 C 224.496 47.807 229.599 42.652 234.703 37.493 C 234.886 37.306 235.078 37.127 235.242 36.924 C 235.923 36.077 235.906 35.779 235.271 34.87 C 234.699 34.098 234.699 33.623 235.865 33.595 C 236.121 33.588 236.384 33.582 236.645 33.582 C 244.158 33.582 251.671 33.579 259.18 33.584 C 259.647 33.584 260.125 33.578 260.577 33.677 C 260.769 33.72 261.001 34.008 261.034 34.215 C 261.066 34.417 260.924 34.772 260.756 34.856 C 260.249 35.112 259.706 35.331 259.151 35.451 C 257.048 35.913 255.335 36.953 253.815 38.504 C 247.276 45.178 240.67 51.787 234.099 58.432 C 232.452 60.1 230.83 61.802 229.215 63.505 C 228.192 64.58 228.19 65.091 229.226 66.15 C 231.046 68.012 232.916 69.82 234.727 71.69 C 236.069 73.072 237.317 74.548 238.669 75.92 C 242.264 79.562 245.903 83.159 249.503 86.795 C 251.926 89.242 254.327 91.711 256.71 94.197 C 258.08 95.633 259.678 96.631 261.605 97.127 C 262.306 97.303 262.994 97.572 263.655 97.867 C 263.836 97.949 264.024 98.288 263.997 98.48 C 263.968 98.677 263.711 98.929 263.503 98.995 C 263.166 99.103 262.786 99.104 262.425 99.104 C 254.756 99.11 247.089 99.108 239.42 99.104 C 239.108 99.104 238.785 99.111 238.491 99.029 C 238.002 98.887 237.817 98.594 238.119 98.087 C 238.372 97.661 238.773 97.176 238.729 96.757 C 238.678 96.314 238.223 95.88 237.869 95.516 C 231.919 89.436 225.96 83.366 220.003 77.293 C 219.783 77.07 219.562 76.846 219.337 76.63 C 218.022 75.354 217.539 75.338 216.222 76.653 C 212.413 80.448 208.6 84.243 204.825 88.074 C 202.374 90.563 199.985 93.114 197.572 95.644 C 196.664 96.596 196.665 96.656 197.354 97.921 C 197.748 98.641 197.6 98.958 196.777 99.078 C 196.421 99.13 196.05 99.108 195.685 99.108 C 188.278 99.11 180.87 99.119 173.462 99.097 C 172.799 99.094 171.683 99.274 171.627 98.462 C 171.509 97.614 172.532 97.572 173.132 97.43 C 175.83 96.798 177.891 95.258 179.798 93.298 C 185.878 87.049 192.061 80.902 198.178 74.694 C 200.08 72.764 201.895 70.755 203.775 68.805 C 204.497 68.052 205.3 67.383 206.041 66.649 C 207.587 65.11 207.592 64.701 206.104 63.196 C 201.595 58.626 197.074 54.068 192.568 49.493 C 188.904 45.78 185.225 42.077 181.61 38.315 C 180.216 36.869 178.581 35.965 176.656 35.516 C 176.302 35.433 175.953 35.322 175.604 35.215 C 175.109 35.062 174.496 34.944 174.565 34.267 C 174.633 33.579 175.237 33.579 175.775 33.582 C 176.087 33.582 176.401 33.579 176.714 33.579 C 180.418 33.579 184.124 33.579 187.828 33.579 Z" id="path23" style="fill-opacity: 1; fill: rgb(255, 255, 255);"/>
  <g transform="matrix(1.25917, 0, 0, 1.272552, -23.625809, 0)">
    <path d="M 109.385 12.379 C 109.385 13.367 110.19 14.15 111.156 14.14 L 118.389 14.14 L 118.389 11.937 L 111.596 11.937 L 111.596 11.32 L 116.949 11.32 L 116.949 9.128 L 109.396 9.128 L 109.385 12.379 L 109.385 12.379 Z" id="path11" style="fill-rule: evenodd; fill: rgb(255, 255, 255);"/>
    <path d="M 109.396 5.118 C 109.396 4.207 110.18 3.362 111.156 3.366 L 118.389 3.366 L 118.389 5.558 L 111.596 5.558 L 111.596 6.175 L 116.949 6.175 L 116.949 8.397 L 109.385 8.397 L 109.396 5.118 L 109.396 5.118 Z" id="path13" style="fill-rule: evenodd; fill: rgb(255, 255, 255);"/>
    <path d="M 110.898 0.411 C 108.443 0.411 106.452 2.402 106.452 4.856 L 106.452 12.637 C 106.452 15.092 108.443 17.082 110.898 17.082 L 118.391 17.082 L 118.391 14.891 L 111.084 14.891 C 109.795 14.891 108.652 13.669 108.652 12.381 L 108.652 5.11 C 108.652 3.821 109.795 2.63 111.084 2.63 L 118.391 2.63 L 118.391 0.408 L 110.898 0.408 L 110.898 0.411 Z" id="path29" style="fill-rule: evenodd; fill: rgb(255, 255, 255);"/>
    <path d="M 125.084 11.997 L 125.084 5.558 L 132.229 5.558 L 132.229 3.366 L 124.683 3.366 C 123.707 3.362 122.923 4.207 122.923 5.118 L 122.914 12.379 C 122.914 13.367 123.717 14.15 124.683 14.14 L 129.286 14.14 L 129.274 9.089 L 125.811 9.089 L 125.811 11.261 L 127.091 11.261 L 127.091 11.996 L 125.084 11.996 L 125.084 11.997 Z" id="path31" style="fill-rule: evenodd; fill: rgb(255, 255, 255);"/>
    <path d="M 104.333 0.39 L 97.155 0.39 C 94.131 0.39 91.678 2.842 91.678 5.866 C 91.678 8.891 94.131 11.284 97.155 11.258 L 99.342 11.258 L 99.342 11.997 L 91.726 11.997 L 91.726 14.141 L 99.094 14.141 C 100.479 14.141 101.603 13.017 101.603 11.634 C 101.603 10.249 100.479 9.145 99.094 9.145 L 97.185 9.137 C 95.388 9.137 93.931 7.68 93.931 5.884 C 93.931 4.087 95.387 2.63 97.185 2.63 L 104.338 2.63 L 104.333 0.39 L 104.333 0.39 Z" id="path33" style="fill-rule: evenodd; fill: rgb(255, 255, 255);"/>
    <path d="M 104.333 5.499 L 96.872 5.499 L 96.872 6.234 L 99.11 6.238 C 102.136 6.238 104.587 8.631 104.587 11.655 C 104.587 14.68 102.136 17.079 99.11 17.079 L 91.726 17.064 L 91.726 14.885 L 99.094 14.885 C 100.891 14.885 102.348 13.429 102.348 11.632 C 102.348 9.836 100.891 8.398 99.094 8.398 L 97.185 8.391 C 95.8 8.391 94.676 7.267 94.676 5.882 C 94.676 4.497 95.8 3.374 97.185 3.374 L 104.338 3.374 L 104.333 5.499 L 104.333 5.499 Z" id="path35" style="fill-rule: evenodd; fill: rgb(255, 255, 255);"/>
    <path d="M 140.576 2.991 C 140.487 2.782 140.456 2.732 140.216 2.732 C 139.975 2.732 139.917 2.857 139.825 3.066 L 135.275 17.082 L 137.669 17.085 L 140.243 9.315 L 141.09 11.939 L 139.391 11.939 L 139.391 14.15 L 144.226 14.15 L 140.576 2.991 L 140.576 2.991 Z" id="path37" style="fill-rule: evenodd; fill: rgb(255, 255, 255);"/>
    <path d="M 124.425 17.084 C 121.97 17.084 119.978 15.093 119.978 12.639 L 119.978 4.858 C 119.978 2.403 121.97 0.413 124.425 0.413 L 132.229 0.413 L 132.229 2.635 L 124.613 2.635 C 123.322 2.635 122.179 3.826 122.179 5.115 L 122.179 12.385 C 122.179 13.674 123.321 14.895 124.613 14.895 L 130.008 14.895 L 130.008 8.359 L 125.813 8.359 L 125.813 6.177 L 132.238 6.177 L 132.238 16.572 L 136.815 2.409 C 137.307 1.006 138.643 0 140.216 0 C 141.82 0 143.182 1.05 143.645 2.502 L 148.398 17.085 L 139.391 17.085 L 139.391 14.894 L 145.242 14.894 L 141.275 2.731 C 141.043 2.062 140.629 1.983 140.216 1.983 C 139.784 1.983 139.385 2.16 139.16 2.771 L 134.503 17.085 L 124.425 17.085 L 124.425 17.084 Z" id="path39" style="fill-rule: evenodd; fill: rgb(255, 255, 255);"/>
  </g>
</svg>
